dist/img/program-icon-3.svg

<svg width="114" height="96" viewBox="0 0 114 96" fill="none" xmlns="http://www.w3.org/2000/svg">
<path d="M39.9 0.446716C39.4102 0.915768 39.4102 0.960445 39.4102 9.40338V17.891L38.7199 18.2707C30.4816 22.7825 24.4699 29.0365 20.5957 37.1221C15.2965 48.2007 15.252 61.3118 20.5066 72.368C22.6887 76.9468 25.1156 80.3866 28.7004 83.9826C39.1652 94.4581 53.9273 98.3892 68.3555 94.5698C76.0594 92.5372 83.7187 87.601 88.9512 81.3023C102.466 64.9972 101.643 41.6116 86.9695 26.1552C84.4535 23.5196 80.0449 20.1469 77.1281 18.6951L75.9703 18.1143L75.9035 16.3275C75.7922 14.2056 75.4137 13.6248 74.1445 13.6248C72.4746 13.6248 72.5859 12.0167 72.5414 35.2012L72.4746 55.9512L66.7523 56.0629C61.6312 56.1522 60.9855 56.2192 60.6293 56.5766C60.273 56.934 60.2285 57.5594 60.1617 62.6519L60.0949 68.3475H42.75V3.35037H72.5859V5.20425C72.5859 7.34848 72.8754 7.81753 74.1891 7.81753C75.5027 7.81753 75.7922 7.25914 75.8812 4.64585C75.9926 2.01023 75.8367 1.02745 75.2355 0.42438C74.8348 0.0223358 74.3449 0 57.6012 0C40.5902 0 40.3898 0 39.9 0.446716ZM39.4102 25.9989V30.1087L38.1855 31.0468C33.1312 34.9555 28.9453 41.9243 27.4535 48.9154C26.8969 51.5734 26.8746 58.2964 27.4535 60.9097C28.3441 65.1089 30.6152 70.4918 31.7063 70.9832C32.775 71.4746 34.0664 70.6481 34.0664 69.509C34.0664 69.2633 33.5766 68.0349 32.9754 66.7617C28.7449 57.8497 29.4797 47.7539 34.957 39.579C36.293 37.5912 38.8312 34.6205 39.2098 34.6205C39.3211 34.6205 39.4102 41.835 39.4102 52.7125V70.7822L39.9 71.2512C40.3676 71.6979 40.6125 71.6979 51.4113 71.6979H62.4328L69.1348 64.9972L75.8144 58.2964L76.0371 34.5535L77.3953 36.0276C82.2715 41.2319 84.8543 47.7093 84.8543 54.7004C84.8543 60.597 83.4738 65.3322 80.3121 70.0897C73.8105 79.8728 61.8316 84.4293 50.5652 81.414C46.8914 80.4312 43.5516 78.7337 40.4121 76.2768C38.9426 75.1376 38.2969 75.026 37.5176 75.83C36.293 77.0362 36.9164 78.0413 40.323 80.3642C43.6629 82.6201 47.5816 84.2506 51.723 85.1217C54.9516 85.8141 60.184 85.8141 63.457 85.1217C74.6121 82.7541 83.2066 75.1376 86.7246 64.4835C87.7488 61.3564 88.1941 58.4081 88.1941 54.8344C88.1941 46.7712 85.2551 39.4897 79.6887 33.6154C78.6199 32.5209 77.3508 31.2925 76.8387 30.9351L75.9258 30.265V21.8444L77.0613 22.5145C79.1766 23.7206 81.8039 25.7979 83.9414 27.9198C89.2629 33.191 92.6473 39.311 94.3172 46.6818C97.3008 59.927 92.6695 74.2442 82.4719 83.2009C68.2664 95.6419 47.693 95.8429 33.2426 83.6922C26.5852 78.0636 21.9984 70.0227 20.4621 61.2224C19.8164 57.5817 19.8164 52.0424 20.4621 48.3793C22.2879 38.0602 28.2551 28.9695 37.05 23.1846C38.1187 22.4698 39.0984 21.8891 39.2098 21.8891C39.3211 21.8891 39.4102 23.743 39.4102 25.9989ZM69.9141 59.4802C69.9141 59.5026 68.4668 60.9767 66.6855 62.7636L63.457 66.0023V59.4132H66.6855C68.4668 59.4132 69.9141 59.4356 69.9141 59.4802Z" fill="black"/>
<path d="M0.445312 5.58396C0 6.03067 0 6.32104 0 19.7449C0 32.856 0.0222656 33.526 0.445312 34.8662C0.690234 35.6479 1.24687 36.7871 1.69219 37.3678C2.56055 38.5739 4.78711 40.1151 5.92266 40.3385L6.67969 40.4725V63.322C6.67969 86.0822 6.67969 86.1492 7.14727 86.7522C7.74844 87.5117 8.86172 87.5563 9.52969 86.8193L10.0195 86.3055V63.4783C10.0195 41.9243 10.0418 40.6288 10.4203 40.5171C12.9809 39.6684 14.9625 37.9932 15.9867 35.782L16.5879 34.5088L16.6547 20.2809C16.7215 6.23169 16.6992 6.03067 16.2539 5.58396C15.5859 4.91388 14.4059 4.98089 13.827 5.71797C13.3594 6.2987 13.3594 6.52206 13.3594 16.5732V26.8253L9.9082 26.6913L9.84141 16.3275C9.79688 7.05812 9.75234 5.89666 9.41836 5.53928C8.90625 4.95855 7.54805 5.00323 6.99141 5.60629C6.59062 6.05301 6.56836 6.6114 6.50156 16.4392L6.43477 26.803H3.33984V6.09768L2.82773 5.62863C2.15977 5.00322 1.04648 4.98089 0.445312 5.58396ZM13.3594 31.6275C13.3594 32.4539 13.248 33.5037 13.1145 33.9728C12.068 37.4348 7.45898 38.4622 4.80937 35.8266C3.80742 34.7992 3.4957 33.9728 3.38437 31.9849L3.27305 30.1533H13.3594V31.6275Z" fill="black"/>
<path d="M109.591 6.45505C105.116 9.47039 101.932 13.9822 100.462 19.4322L99.8836 21.5541L99.8613 31.7168V41.8796L100.396 43.0634C101.041 44.5153 102.912 46.2798 104.359 46.7935C105.027 47.0392 106.385 47.2179 108.055 47.2849L110.66 47.3966V66.784C110.66 86.0375 110.66 86.1492 111.128 86.7523C111.751 87.5563 112.909 87.5563 113.532 86.7523L114 86.1492V46.1458C114 6.16469 114 6.12002 113.555 5.62863C112.753 4.77987 111.818 4.98089 109.591 6.45505ZM110.66 26.9146V44.0015H108.723C106.385 44.0015 105.361 43.7335 104.404 42.9517C103.112 41.8573 103.09 41.7233 103.09 32.2306C103.09 27.406 103.201 22.9165 103.312 22.1124C103.98 17.891 106.185 13.7589 109.235 10.9669C109.925 10.3415 110.504 9.82776 110.571 9.82776C110.616 9.82776 110.66 17.5113 110.66 26.9146Z" fill="black"/>
<path d="M51.5895 9.69374C48.9621 10.6765 47.2031 13.2451 47.2031 16.0594C47.2031 17.4889 47.8711 19.5885 48.7617 20.9957C50.1645 23.1846 53.9941 26.1999 56.577 27.1603L57.5789 27.54L59.4492 26.5573C63.1231 24.6364 65.9508 21.8444 67.0418 19.0301C67.7766 17.1316 67.7543 14.7863 66.9973 13.1781C65.8617 10.7435 64.0582 9.51506 61.5645 9.49272C60.2285 9.49272 59.8277 9.58206 58.7145 10.2075L57.4008 10.9222L56.1984 10.2521C54.7512 9.42571 52.8809 9.20235 51.5895 9.69374ZM54.4172 13.0664C54.7957 13.2451 55.3746 13.8482 55.7086 14.4066C56.7328 16.0818 58.1356 16.0818 59.1152 14.3843C60.184 12.5304 62.1211 12.24 63.4348 13.7365C64.9934 15.5234 64.3922 18.2707 61.8762 20.7946C60.6516 22.0231 57.668 23.944 57.2449 23.7876C56.3766 23.4526 54.3949 22.1348 53.2371 21.085C50.5875 18.6727 49.8305 15.6797 51.3668 13.8259C52.302 12.7091 53.1926 12.4857 54.4172 13.0664Z" fill="black"/>
<path d="M48.784 36.0947C48.1828 36.8764 48.2051 37.3678 48.8508 38.1272L49.3852 38.7526L56.9332 38.8196C61.0746 38.8643 64.793 38.8196 65.1937 38.7526C66.6633 38.4846 67.309 36.9211 66.3516 35.9606C65.9285 35.5363 65.6168 35.5139 57.5789 35.5139H49.2293L48.784 36.0947Z" fill="black"/>
<path d="M48.784 44.8056C48.1828 45.5874 48.2051 46.0788 48.8508 46.8382L49.3852 47.4636L56.9332 47.5306C61.0746 47.5753 64.793 47.5306 65.1937 47.4636C66.6633 47.1956 67.309 45.632 66.3516 44.6716C65.9285 44.2472 65.6168 44.2249 57.5789 44.2249H49.2293L48.784 44.8056Z" fill="black"/>
</svg>

<svg width="114" height="96" fill="none" xmlns="http://www.w3.org/2000/svg"><path d="M39.9.447c-.49.469-.49.513-.49 8.956v8.488l-.69.38c-8.238 4.511-14.25 10.765-18.124 18.851-5.3 11.079-5.344 24.19-.09 35.246 2.183 4.579 4.61 8.019 8.194 11.615C39.165 94.458 53.927 98.389 68.356 94.57c7.703-2.033 15.363-6.969 20.595-13.268 13.515-16.305 12.692-39.69-1.981-55.147-2.516-2.635-6.925-6.008-9.842-7.46l-1.158-.58-.067-1.787c-.11-2.122-.49-2.703-1.759-2.703-1.67 0-1.558-1.608-1.603 21.576l-.066 20.75-5.723.112c-5.12.09-5.766.156-6.123.514-.356.357-.4.982-.467 6.075l-.067 5.695H42.75V3.35h29.836v1.854c0 2.144.29 2.614 1.603 2.614 1.314 0 1.603-.559 1.692-3.172.112-2.636-.044-3.619-.645-4.222C74.835.022 74.344 0 57.6 0 40.591 0 40.39 0 39.9.447Zm-.49 25.552v4.11l-1.224.938c-5.055 3.909-9.24 10.877-10.733 17.868-.556 2.658-.578 9.381 0 11.995.891 4.199 3.162 9.582 4.253 10.073 1.069.492 2.36-.335 2.36-1.474 0-.246-.49-1.474-1.09-2.747-4.231-8.912-3.496-19.008 1.981-27.183 1.336-1.988 3.874-4.959 4.253-4.959.111 0 .2 7.215.2 18.093v18.07l.49.468c.468.447.712.447 11.511.447h11.022l6.702-6.7 6.68-6.702.222-23.742 1.358 1.474c4.877 5.204 7.46 11.681 7.46 18.672 0 5.897-1.381 10.632-4.543 15.39-6.501 9.783-18.48 14.34-29.747 11.324-3.674-.983-7.013-2.68-10.153-5.137-1.47-1.14-2.115-1.251-2.894-.447-1.225 1.206-.602 2.211 2.805 4.534 3.34 2.256 7.259 3.887 11.4 4.758 3.229.692 8.461.692 11.734 0 11.155-2.368 19.75-9.984 23.268-20.638 1.024-3.128 1.47-6.076 1.47-9.65 0-8.063-2.94-15.344-8.506-21.219-1.07-1.094-2.338-2.323-2.85-2.68l-.913-.67v-8.42l1.135.67c2.116 1.206 4.743 3.283 6.88 5.405 5.322 5.271 8.706 11.391 10.376 18.762C97.301 59.927 92.67 74.244 82.472 83.2c-14.206 12.44-34.779 12.642-49.23.491-6.657-5.628-11.244-13.67-12.78-22.47-.646-3.64-.646-9.18 0-12.843A38.04 38.04 0 0 1 37.05 23.185c1.069-.715 2.048-1.296 2.16-1.296.111 0 .2 1.854.2 4.11ZM69.914 59.48c0 .023-1.447 1.497-3.228 3.284l-3.229 3.238v-6.589h3.229c1.78 0 3.228.023 3.228.067ZM.445 5.584C0 6.031 0 6.321 0 19.744c0 13.112.022 13.782.445 15.122.245.782.802 1.921 1.247 2.502.869 1.206 3.095 2.747 4.23 2.97l.758.134v22.85c0 22.76 0 22.827.467 23.43.601.76 1.715.804 2.383.067l.49-.514V63.478c0-21.554.022-22.85.4-22.96 2.56-.85 4.543-2.525 5.567-4.736l.6-1.273.068-14.228c.066-14.05.044-14.25-.401-14.697-.668-.67-1.848-.603-2.427.134-.468.58-.468.804-.468 10.855v10.252l-3.45-.134-.068-10.363c-.044-9.27-.089-10.431-.423-10.789-.512-.58-1.87-.536-2.427.067-.4.447-.423 1.005-.49 10.833l-.066 10.364H3.34V6.098l-.512-.47c-.668-.625-1.782-.647-2.383-.044ZM13.36 31.628c0 .826-.111 1.876-.245 2.345-1.046 3.462-5.655 4.49-8.305 1.854-1.002-1.028-1.313-1.854-1.425-3.842l-.11-1.832H13.36v1.475Zm96.231-25.173c-4.475 3.015-7.659 7.527-9.129 12.977l-.578 2.122-.023 10.163V41.88l.535 1.183c.645 1.452 2.516 3.217 3.963 3.73.668.246 2.026.425 3.696.492l2.605.112v19.387c0 19.253 0 19.365.468 19.968a1.5 1.5 0 0 0 2.404 0l.468-.603V46.146c0-39.981 0-40.026-.445-40.517-.802-.85-1.737-.648-3.964.826Zm1.069 20.46v17.087h-1.937c-2.338 0-3.362-.269-4.319-1.05-1.292-1.095-1.314-1.229-1.314-10.721 0-4.825.111-9.315.222-10.119.668-4.221 2.873-8.353 5.923-11.145.69-.626 1.269-1.14 1.336-1.14.045 0 .089 7.684.089 17.088Z" fill="#000"/><path d="M51.59 9.694c-2.628.982-4.387 3.551-4.387 6.365 0 1.43.668 3.53 1.559 4.937 1.402 2.189 5.232 5.204 7.815 6.164l1.002.38 1.87-.983c3.674-1.92 6.502-4.713 7.593-7.527.735-1.898.712-4.244-.045-5.852-1.135-2.435-2.939-3.663-5.432-3.685-1.337 0-1.737.09-2.85.714l-1.314.715-1.203-.67c-1.447-.826-3.317-1.05-4.608-.558Zm2.827 3.372c.379.18.958.782 1.292 1.34 1.024 1.676 2.427 1.676 3.406-.022 1.069-1.854 3.006-2.144 4.32-.648 1.558 1.787.957 4.535-1.559 7.059-1.224 1.228-4.208 3.149-4.631 2.993-.868-.335-2.85-1.653-4.008-2.703-2.65-2.412-3.407-5.405-1.87-7.26.935-1.116 1.826-1.34 3.05-.759Zm-5.633 23.029c-.601.781-.579 1.273.067 2.032l.534.626 7.548.067c4.142.044 7.86 0 8.26-.067 1.47-.268 2.116-1.832 1.159-2.792-.424-.425-.735-.447-8.773-.447h-8.35l-.445.58Zm0 8.711c-.601.781-.579 1.273.067 2.032l.534.626 7.548.067c4.142.044 7.86 0 8.26-.067 1.47-.268 2.116-1.832 1.159-2.792-.424-.425-.735-.447-8.773-.447h-8.35l-.445.58Z" fill="#000"/></svg>
